assets/images/widget-icon-text.svg

<svg width="234" height="140" viewBox="0 0 234 140" fill="none" xmlns="http://www.w3.org/2000/svg">
<rect x="0.5" y="0.5" width="233" height="139" rx="3.5" stroke="black" stroke-opacity="0.12"/>
<rect x="55" y="38" width="124" height="64" rx="4" fill="#2563EB"/>
<rect x="62.5" y="45.5" width="109" height="49" rx="2.5" stroke="white" stroke-width="3"/>
<path d="M76.6406 65.5703L73.5469 75H71.0547L75.2812 63.625H76.8672L76.6406 65.5703ZM79.2109 75L76.1094 65.5703L75.8594 63.625H77.4609L81.7109 75H79.2109ZM79.0703 70.7656V72.6016H73.0625V70.7656H79.0703ZM86.2672 73.3984C86.5432 73.3984 86.788 73.3464 87.0016 73.2422C87.2151 73.1328 87.3818 72.9818 87.5016 72.7891C87.6266 72.5911 87.6917 72.3594 87.6969 72.0938H89.8141C89.8089 72.6875 89.65 73.2161 89.3375 73.6797C89.025 74.138 88.6057 74.5 88.0797 74.7656C87.5536 75.026 86.9651 75.1562 86.3141 75.1562C85.6578 75.1562 85.0849 75.0469 84.5953 74.8281C84.1109 74.6094 83.7073 74.3073 83.3844 73.9219C83.0615 73.5312 82.8193 73.0781 82.6578 72.5625C82.4964 72.0417 82.4156 71.4844 82.4156 70.8906V70.6641C82.4156 70.0651 82.4964 69.5078 82.6578 68.9922C82.8193 68.4714 83.0615 68.0182 83.3844 67.6328C83.7073 67.2422 84.1109 66.9375 84.5953 66.7188C85.0797 66.5 85.6474 66.3906 86.2984 66.3906C86.9911 66.3906 87.5979 66.5234 88.1187 66.7891C88.6448 67.0547 89.0562 67.4349 89.3531 67.9297C89.6552 68.4193 89.8089 69 89.8141 69.6719H87.6969C87.6917 69.3906 87.6318 69.1354 87.5172 68.9062C87.4078 68.6771 87.2464 68.4948 87.0328 68.3594C86.8245 68.2188 86.5667 68.1484 86.2594 68.1484C85.9312 68.1484 85.663 68.2188 85.4547 68.3594C85.2464 68.4948 85.0849 68.6823 84.9703 68.9219C84.8557 69.1562 84.775 69.4245 84.7281 69.7266C84.6865 70.0234 84.6656 70.3359 84.6656 70.6641V70.8906C84.6656 71.2188 84.6865 71.5339 84.7281 71.8359C84.7698 72.138 84.8479 72.4062 84.9625 72.6406C85.0823 72.875 85.2464 73.0599 85.4547 73.1953C85.663 73.3307 85.9339 73.3984 86.2672 73.3984ZM94.7609 73.3984C95.037 73.3984 95.2818 73.3464 95.4953 73.2422C95.7089 73.1328 95.8755 72.9818 95.9953 72.7891C96.1203 72.5911 96.1854 72.3594 96.1906 72.0938H98.3078C98.3026 72.6875 98.1437 73.2161 97.8312 73.6797C97.5187 74.138 97.0995 74.5 96.5734 74.7656C96.0474 75.026 95.4589 75.1562 94.8078 75.1562C94.1516 75.1562 93.5786 75.0469 93.0891 74.8281C92.6047 74.6094 92.201 74.3073 91.8781 73.9219C91.5552 73.5312 91.313 73.0781 91.1516 72.5625C90.9901 72.0417 90.9094 71.4844 90.9094 70.8906V70.6641C90.9094 70.0651 90.9901 69.5078 91.1516 68.9922C91.313 68.4714 91.5552 68.0182 91.8781 67.6328C92.201 67.2422 92.6047 66.9375 93.0891 66.7188C93.5734 66.5 94.1411 66.3906 94.7922 66.3906C95.4849 66.3906 96.0917 66.5234 96.6125 66.7891C97.1385 67.0547 97.55 67.4349 97.8469 67.9297C98.149 68.4193 98.3026 69 98.3078 69.6719H96.1906C96.1854 69.3906 96.1255 69.1354 96.0109 68.9062C95.9016 68.6771 95.7401 68.4948 95.5266 68.3594C95.3182 68.2188 95.0604 68.1484 94.7531 68.1484C94.425 68.1484 94.1568 68.2188 93.9484 68.3594C93.7401 68.4948 93.5786 68.6823 93.4641 68.9219C93.3495 69.1562 93.2687 69.4245 93.2219 69.7266C93.1802 70.0234 93.1594 70.3359 93.1594 70.6641V70.8906C93.1594 71.2188 93.1802 71.5339 93.2219 71.8359C93.2635 72.138 93.3417 72.4062 93.4562 72.6406C93.576 72.875 93.7401 73.0599 93.9484 73.1953C94.1568 73.3307 94.4276 73.3984 94.7609 73.3984ZM103.653 75.1562C102.997 75.1562 102.408 75.0521 101.888 74.8438C101.367 74.6302 100.924 74.3359 100.559 73.9609C100.2 73.5859 99.924 73.151 99.7313 72.6562C99.5385 72.1562 99.4422 71.625 99.4422 71.0625V70.75C99.4422 70.1094 99.5333 69.5234 99.7156 68.9922C99.8979 68.4609 100.158 68 100.497 67.6094C100.841 67.2188 101.257 66.9193 101.747 66.7109C102.236 66.4974 102.789 66.3906 103.403 66.3906C104.002 66.3906 104.533 66.4896 104.997 66.6875C105.46 66.8854 105.848 67.1667 106.161 67.5312C106.479 67.8958 106.718 68.3333 106.88 68.8438C107.041 69.349 107.122 69.9115 107.122 70.5312V71.4688H100.403V69.9688H104.911V69.7969C104.911 69.4844 104.854 69.2057 104.739 68.9609C104.63 68.7109 104.463 68.513 104.239 68.3672C104.015 68.2214 103.729 68.1484 103.38 68.1484C103.083 68.1484 102.828 68.2135 102.614 68.3438C102.401 68.474 102.226 68.6562 102.091 68.8906C101.96 69.125 101.861 69.401 101.794 69.7188C101.731 70.0312 101.7 70.375 101.7 70.75V71.0625C101.7 71.401 101.747 71.7135 101.841 72C101.94 72.2865 102.078 72.5339 102.255 72.7422C102.437 72.9505 102.656 73.112 102.911 73.2266C103.171 73.3411 103.466 73.3984 103.794 73.3984C104.2 73.3984 104.578 73.3203 104.927 73.1641C105.281 73.0026 105.585 72.7604 105.841 72.4375L106.934 73.625C106.757 73.8802 106.515 74.125 106.208 74.3594C105.906 74.5938 105.541 74.7865 105.114 74.9375C104.687 75.0833 104.2 75.1562 103.653 75.1562ZM113.123 72.6641C113.123 72.5026 113.077 72.3568 112.983 72.2266C112.889 72.0964 112.715 71.9766 112.459 71.8672C112.209 71.7526 111.847 71.6484 111.373 71.5547C110.946 71.4609 110.548 71.3438 110.178 71.2031C109.814 71.0573 109.496 70.8828 109.225 70.6797C108.959 70.4766 108.751 70.237 108.6 69.9609C108.449 69.6797 108.373 69.3594 108.373 69C108.373 68.6458 108.449 68.3125 108.6 68C108.756 67.6875 108.978 67.4115 109.264 67.1719C109.556 66.9271 109.91 66.737 110.327 66.6016C110.748 66.4609 111.222 66.3906 111.748 66.3906C112.483 66.3906 113.113 66.5078 113.639 66.7422C114.17 66.9766 114.577 67.2995 114.858 67.7109C115.144 68.1172 115.287 68.5807 115.287 69.1016H113.037C113.037 68.8828 112.991 68.6875 112.897 68.5156C112.808 68.3385 112.668 68.2005 112.475 68.1016C112.287 67.9974 112.043 67.9453 111.741 67.9453C111.491 67.9453 111.274 67.9896 111.092 68.0781C110.91 68.1615 110.769 68.276 110.67 68.4219C110.577 68.5625 110.53 68.7188 110.53 68.8906C110.53 69.0208 110.556 69.138 110.608 69.2422C110.665 69.3411 110.756 69.4323 110.881 69.5156C111.006 69.599 111.168 69.6771 111.366 69.75C111.569 69.8177 111.819 69.8802 112.116 69.9375C112.725 70.0625 113.269 70.2266 113.748 70.4297C114.228 70.6276 114.608 70.8984 114.889 71.2422C115.17 71.5807 115.311 72.026 115.311 72.5781C115.311 72.9531 115.228 73.2969 115.061 73.6094C114.894 73.9219 114.655 74.1953 114.342 74.4297C114.03 74.6589 113.655 74.8385 113.217 74.9688C112.785 75.0938 112.298 75.1562 111.756 75.1562C110.97 75.1562 110.303 75.0156 109.756 74.7344C109.215 74.4531 108.803 74.0964 108.522 73.6641C108.246 73.2266 108.108 72.7786 108.108 72.3203H110.241C110.251 72.6276 110.329 72.875 110.475 73.0625C110.626 73.25 110.816 73.3854 111.045 73.4688C111.28 73.5521 111.532 73.5938 111.803 73.5938C112.095 73.5938 112.337 73.5547 112.53 73.4766C112.722 73.3932 112.868 73.2839 112.967 73.1484C113.071 73.0078 113.123 72.8464 113.123 72.6641ZM121.492 72.6641C121.492 72.5026 121.445 72.3568 121.352 72.2266C121.258 72.0964 121.083 71.9766 120.828 71.8672C120.578 71.7526 120.216 71.6484 119.742 71.5547C119.315 71.4609 118.917 71.3438 118.547 71.2031C118.182 71.0573 117.865 70.8828 117.594 70.6797C117.328 70.4766 117.12 70.237 116.969 69.9609C116.818 69.6797 116.742 69.3594 116.742 69C116.742 68.6458 116.818 68.3125 116.969 68C117.125 67.6875 117.346 67.4115 117.633 67.1719C117.924 66.9271 118.279 66.737 118.695 66.6016C119.117 66.4609 119.591 66.3906 120.117 66.3906C120.852 66.3906 121.482 66.5078 122.008 66.7422C122.539 66.9766 122.945 67.2995 123.227 67.7109C123.513 68.1172 123.656 68.5807 123.656 69.1016H121.406C121.406 68.8828 121.359 68.6875 121.266 68.5156C121.177 68.3385 121.036 68.2005 120.844 68.1016C120.656 67.9974 120.411 67.9453 120.109 67.9453C119.859 67.9453 119.643 67.9896 119.461 68.0781C119.279 68.1615 119.138 68.276 119.039 68.4219C118.945 68.5625 118.898 68.7188 118.898 68.8906C118.898 69.0208 118.924 69.138 118.977 69.2422C119.034 69.3411 119.125 69.4323 119.25 69.5156C119.375 69.599 119.536 69.6771 119.734 69.75C119.938 69.8177 120.188 69.8802 120.484 69.9375C121.094 70.0625 121.638 70.2266 122.117 70.4297C122.596 70.6276 122.977 70.8984 123.258 71.2422C123.539 71.5807 123.68 72.026 123.68 72.5781C123.68 72.9531 123.596 73.2969 123.43 73.6094C123.263 73.9219 123.023 74.1953 122.711 74.4297C122.398 74.6589 122.023 74.8385 121.586 74.9688C121.154 75.0938 120.667 75.1562 120.125 75.1562C119.339 75.1562 118.672 75.0156 118.125 74.7344C117.583 74.4531 117.172 74.0964 116.891 73.6641C116.615 73.2266 116.477 72.7786 116.477 72.3203H118.609C118.62 72.6276 118.698 72.875 118.844 73.0625C118.995 73.25 119.185 73.3854 119.414 73.4688C119.648 73.5521 119.901 73.5938 120.172 73.5938C120.464 73.5938 120.706 73.5547 120.898 73.4766C121.091 73.3932 121.237 73.2839 121.336 73.1484C121.44 73.0078 121.492 72.8464 121.492 72.6641ZM127.666 66.5469V75H125.408V66.5469H127.666ZM125.267 64.3438C125.267 64.0156 125.382 63.7448 125.611 63.5312C125.84 63.3177 126.147 63.2109 126.533 63.2109C126.913 63.2109 127.218 63.3177 127.447 63.5312C127.681 63.7448 127.798 64.0156 127.798 64.3438C127.798 64.6719 127.681 64.9427 127.447 65.1562C127.218 65.3698 126.913 65.4766 126.533 65.4766C126.147 65.4766 125.84 65.3698 125.611 65.1562C125.382 64.9427 125.267 64.6719 125.267 64.3438ZM129.675 63H131.925V73.0625L131.698 75H129.675V63ZM137.277 70.6875V70.8516C137.277 71.4818 137.209 72.0599 137.073 72.5859C136.943 73.112 136.74 73.5677 136.464 73.9531C136.188 74.3333 135.844 74.6302 135.433 74.8438C135.027 75.0521 134.547 75.1562 133.995 75.1562C133.48 75.1562 133.032 75.0521 132.652 74.8438C132.277 74.6354 131.961 74.3411 131.706 73.9609C131.451 73.5807 131.245 73.1354 131.089 72.625C130.933 72.1146 130.816 71.5573 130.737 70.9531V70.5938C130.816 69.9896 130.933 69.4323 131.089 68.9219C131.245 68.4115 131.451 67.9661 131.706 67.5859C131.961 67.2057 132.277 66.9115 132.652 66.7031C133.027 66.4948 133.469 66.3906 133.98 66.3906C134.537 66.3906 135.021 66.4974 135.433 66.7109C135.849 66.9193 136.193 67.2161 136.464 67.6016C136.74 67.9818 136.943 68.4349 137.073 68.9609C137.209 69.4818 137.277 70.0573 137.277 70.6875ZM135.027 70.8516V70.6875C135.027 70.3438 135.001 70.0208 134.948 69.7188C134.902 69.4115 134.818 69.1432 134.698 68.9141C134.579 68.6797 134.415 68.4948 134.206 68.3594C134.003 68.224 133.74 68.1562 133.417 68.1562C133.11 68.1562 132.849 68.2083 132.636 68.3125C132.422 68.4167 132.245 68.5625 132.105 68.75C131.969 68.9375 131.868 69.1615 131.8 69.4219C131.732 69.6771 131.691 69.9583 131.675 70.2656V71.2891C131.691 71.7005 131.758 72.0651 131.878 72.3828C132.003 72.6953 132.191 72.9427 132.441 73.125C132.696 73.3021 133.027 73.3906 133.433 73.3906C133.751 73.3906 134.014 73.3281 134.222 73.2031C134.43 73.0781 134.592 72.901 134.706 72.6719C134.826 72.4427 134.909 72.1745 134.956 71.8672C135.003 71.5547 135.027 71.2161 135.027 70.8516ZM141.2 66.5469V75H138.942V66.5469H141.2ZM138.802 64.3438C138.802 64.0156 138.916 63.7448 139.145 63.5312C139.374 63.3177 139.682 63.2109 140.067 63.2109C140.447 63.2109 140.752 63.3177 140.981 63.5312C141.216 63.7448 141.333 64.0156 141.333 64.3438C141.333 64.6719 141.216 64.9427 140.981 65.1562C140.752 65.3698 140.447 65.4766 140.067 65.4766C139.682 65.4766 139.374 65.3698 139.145 65.1562C138.916 64.9427 138.802 64.6719 138.802 64.3438ZM145.584 63V75H143.327V63H145.584ZM149.969 66.5469V75H147.711V66.5469H149.969ZM147.57 64.3438C147.57 64.0156 147.685 63.7448 147.914 63.5312C148.143 63.3177 148.451 63.2109 148.836 63.2109C149.216 63.2109 149.521 63.3177 149.75 63.5312C149.984 63.7448 150.102 64.0156 150.102 64.3438C150.102 64.6719 149.984 64.9427 149.75 65.1562C149.521 65.3698 149.216 65.4766 148.836 65.4766C148.451 65.4766 148.143 65.3698 147.914 65.1562C147.685 64.9427 147.57 64.6719 147.57 64.3438ZM156.119 66.5469V68.1406H151.197V66.5469H156.119ZM152.416 64.4609H154.666V72.4531C154.666 72.6979 154.697 72.8854 154.759 73.0156C154.827 73.1458 154.926 73.237 155.056 73.2891C155.186 73.3359 155.351 73.3594 155.548 73.3594C155.689 73.3594 155.814 73.3542 155.923 73.3438C156.038 73.3281 156.134 73.3125 156.213 73.2969L156.22 74.9531C156.028 75.0156 155.819 75.0651 155.595 75.1016C155.371 75.138 155.124 75.1562 154.853 75.1562C154.358 75.1562 153.926 75.0755 153.556 74.9141C153.192 74.7474 152.91 74.4818 152.713 74.1172C152.515 73.7526 152.416 73.2734 152.416 72.6797V64.4609ZM160.058 74.0469L162.3 66.5469H164.714L161.316 76.2734C161.243 76.487 161.144 76.7161 161.019 76.9609C160.899 77.2057 160.735 77.4375 160.527 77.6562C160.323 77.8802 160.066 78.0625 159.753 78.2031C159.446 78.3438 159.068 78.4141 158.62 78.4141C158.407 78.4141 158.232 78.401 158.097 78.375C157.961 78.349 157.8 78.3125 157.613 78.2656V76.6172C157.67 76.6172 157.73 76.6172 157.792 76.6172C157.855 76.6224 157.915 76.625 157.972 76.625C158.269 76.625 158.511 76.5911 158.698 76.5234C158.886 76.4557 159.037 76.3516 159.152 76.2109C159.266 76.0755 159.357 75.8984 159.425 75.6797L160.058 74.0469ZM159.12 66.5469L160.956 72.6719L161.277 75.0547L159.745 75.2188L156.706 66.5469H159.12Z" fill="white"/>
</svg>

<svg xmlns="http://www.w3.org/2000/svg" width="234" height="140" fill="none"><rect width="124" height="64" x="55" y="38" fill="#2563EB" rx="4"/><rect width="109" height="49" x="62.5" y="45.5" stroke="#fff" stroke-width="3" rx="2.5"/><path fill="#fff" d="M76.64 65.57 73.548 75h-2.492l4.226-11.375h1.586l-.226 1.945ZM79.21 75l-3.1-9.43-.25-1.945h1.6L81.71 75h-2.5Zm-.14-4.234v1.836h-6.007v-1.836h6.007Zm7.197 2.632c.276 0 .521-.052.735-.156.213-.11.38-.26.5-.453.125-.198.19-.43.195-.695h2.117a2.817 2.817 0 0 1-.476 1.586c-.313.458-.732.82-1.258 1.086-.526.26-1.115.39-1.766.39-.656 0-1.23-.11-1.719-.328a3.354 3.354 0 0 1-1.21-.906 3.973 3.973 0 0 1-.727-1.36 5.619 5.619 0 0 1-.242-1.671v-.227c0-.599.08-1.156.242-1.672.161-.52.403-.974.726-1.36.323-.39.727-.695 1.211-.913.485-.219 1.052-.328 1.703-.328.693 0 1.3.132 1.82.398.527.266.938.646 1.235 1.14.302.49.456 1.071.461 1.743h-2.117a1.763 1.763 0 0 0-.18-.766c-.11-.229-.27-.411-.484-.547-.209-.14-.466-.21-.774-.21-.328 0-.596.07-.804.21-.209.136-.37.323-.485.563a2.801 2.801 0 0 0-.242.805c-.041.296-.062.609-.062.937v.227c0 .328.02.643.062.945.042.302.12.57.235.805.12.234.283.419.492.554.208.136.479.203.812.203Zm8.494 0c.276 0 .52-.052.734-.156.214-.11.38-.26.5-.453.125-.198.19-.43.196-.695h2.117a2.817 2.817 0 0 1-.477 1.586c-.312.458-.731.82-1.258 1.086-.526.26-1.114.39-1.765.39-.656 0-1.23-.11-1.719-.328a3.355 3.355 0 0 1-1.21-.906 3.97 3.97 0 0 1-.727-1.36 5.615 5.615 0 0 1-.243-1.671v-.227c0-.599.081-1.156.243-1.672.161-.52.403-.974.726-1.36.323-.39.727-.695 1.211-.913.484-.219 1.052-.328 1.703-.328.693 0 1.3.132 1.82.398.526.266.938.646 1.235 1.14.302.49.456 1.071.46 1.743h-2.116a1.763 1.763 0 0 0-.18-.766c-.11-.229-.27-.411-.484-.547-.209-.14-.467-.21-.774-.21-.328 0-.596.07-.805.21-.208.136-.37.323-.484.563a2.798 2.798 0 0 0-.242.805 6.74 6.74 0 0 0-.063.937v.227c0 .328.021.643.063.945.041.302.12.57.234.805.12.234.284.419.492.554.209.136.48.203.813.203Zm8.892 1.758c-.656 0-1.245-.104-1.765-.312a3.884 3.884 0 0 1-1.329-.883 3.928 3.928 0 0 1-.828-1.305 4.39 4.39 0 0 1-.289-1.594v-.312c0-.64.091-1.227.274-1.758.182-.531.442-.992.781-1.383.344-.39.76-.69 1.25-.898.489-.214 1.042-.32 1.656-.32.599 0 1.13.099 1.594.296.463.198.851.48 1.164.844.318.365.557.802.719 1.313a5.54 5.54 0 0 1 .242 1.687v.938h-6.719v-1.5h4.508v-.172c0-.313-.057-.591-.172-.836a1.324 1.324 0 0 0-.5-.594c-.224-.146-.51-.219-.859-.219-.297 0-.552.066-.766.196a1.51 1.51 0 0 0-.523.547c-.131.234-.23.51-.297.828a5.228 5.228 0 0 0-.094 1.031v.313c0 .338.047.65.141.937.099.287.237.534.414.742.182.209.401.37.656.485.26.114.555.171.883.171.406 0 .784-.078 1.133-.234a2.46 2.46 0 0 0 .914-.727l1.093 1.188a3.33 3.33 0 0 1-.726.734 3.88 3.88 0 0 1-1.094.579 4.511 4.511 0 0 1-1.461.218Zm9.47-2.492a.729.729 0 0 0-.14-.437c-.094-.13-.268-.25-.524-.36-.25-.114-.612-.219-1.086-.312a8.474 8.474 0 0 1-1.195-.352 4.16 4.16 0 0 1-.953-.523 2.27 2.27 0 0 1-.625-.72 2 2 0 0 1-.227-.96c0-.354.076-.688.227-1 .156-.313.378-.588.664-.828a3.145 3.145 0 0 1 1.063-.57 4.47 4.47 0 0 1 1.421-.211c.735 0 1.365.117 1.891.351.531.235.938.557 1.219.969.286.406.429.87.429 1.39h-2.25a1.2 1.2 0 0 0-.14-.585.93.93 0 0 0-.422-.414c-.188-.105-.432-.157-.734-.157-.25 0-.467.045-.649.133a.997.997 0 0 0-.422.344.832.832 0 0 0-.14.469c0 .13.026.247.078.351.057.1.148.19.273.274.125.083.287.161.485.234.203.068.453.13.75.188.609.124 1.153.289 1.632.492.48.198.86.468 1.141.812.281.339.422.784.422 1.336 0 .375-.083.719-.25 1.031a2.488 2.488 0 0 1-.719.82c-.312.23-.687.41-1.125.54a5.256 5.256 0 0 1-1.461.187c-.786 0-1.453-.14-2-.422-.541-.28-.953-.638-1.234-1.07-.276-.437-.414-.885-.414-1.344h2.133c.01.308.088.555.234.743.151.187.341.322.57.406.235.083.487.125.758.125.292 0 .534-.04.727-.117.192-.084.338-.193.437-.329a.793.793 0 0 0 .156-.484Zm8.369 0a.735.735 0 0 0-.14-.437c-.094-.13-.269-.25-.524-.36-.25-.114-.612-.219-1.086-.312a8.474 8.474 0 0 1-1.195-.352 4.14 4.14 0 0 1-.953-.523 2.27 2.27 0 0 1-.625-.72 2 2 0 0 1-.227-.96c0-.354.076-.688.227-1 .156-.313.377-.588.664-.828a3.14 3.14 0 0 1 1.062-.57c.422-.141.896-.211 1.422-.211.735 0 1.365.117 1.891.351.531.235.937.557 1.219.969.286.406.429.87.429 1.39h-2.25c0-.218-.047-.413-.14-.585a.934.934 0 0 0-.422-.414c-.188-.105-.433-.157-.735-.157-.25 0-.466.045-.648.133a.997.997 0 0 0-.422.344.825.825 0 0 0-.141.469c0 .13.026.247.079.351.057.1.148.19.273.274.125.083.286.161.484.234.204.068.454.13.75.188.61.124 1.154.289 1.633.492.479.198.86.468 1.141.812.281.339.422.784.422 1.336 0 .375-.084.719-.25 1.031a2.5 2.5 0 0 1-.719.82c-.313.23-.688.41-1.125.54a5.256 5.256 0 0 1-1.461.187c-.786 0-1.453-.14-2-.422-.542-.28-.953-.638-1.234-1.07-.276-.437-.414-.885-.414-1.344h2.132c.011.308.089.555.235.743.151.187.341.322.57.406.234.083.487.125.758.125.292 0 .534-.04.726-.117.193-.084.339-.193.438-.329a.793.793 0 0 0 .156-.484Zm6.174-6.117V75h-2.258v-8.453h2.258Zm-2.399-2.203c0-.328.115-.6.344-.813.229-.213.536-.32.922-.32.38 0 .685.107.914.32.234.214.351.485.351.813 0 .328-.117.599-.351.812-.229.214-.534.32-.914.32-.386 0-.693-.106-.922-.32a1.063 1.063 0 0 1-.344-.812ZM129.675 63h2.25v10.063L131.698 75h-2.023V63Zm7.602 7.688v.164c0 .63-.068 1.208-.204 1.734-.13.526-.333.982-.609 1.367-.276.38-.62.677-1.031.89-.406.21-.886.313-1.438.313-.515 0-.963-.104-1.343-.312a2.728 2.728 0 0 1-.946-.883 5.016 5.016 0 0 1-.617-1.336 10.284 10.284 0 0 1-.352-1.672v-.36c.079-.603.196-1.16.352-1.671.156-.51.362-.956.617-1.336.255-.38.571-.674.946-.883.375-.208.817-.312 1.328-.312.557 0 1.041.106 1.453.32.416.208.76.505 1.031.89.276.38.479.834.609 1.36a6.83 6.83 0 0 1 .204 1.727Zm-2.25.164v-.165c0-.343-.026-.666-.079-.968a2.534 2.534 0 0 0-.25-.805 1.402 1.402 0 0 0-.492-.555c-.203-.135-.466-.203-.789-.203-.307 0-.568.052-.781.156-.214.105-.391.25-.531.438a1.986 1.986 0 0 0-.305.672 4.11 4.11 0 0 0-.125.844v1.023c.016.412.083.776.203 1.094.125.312.313.56.563.742.255.177.586.266.992.266.318 0 .581-.063.789-.188a1.26 1.26 0 0 0 .484-.531c.12-.23.203-.498.25-.805a6.84 6.84 0 0 0 .071-1.015Zm6.173-4.305V75h-2.258v-8.453h2.258Zm-2.398-2.203c0-.328.114-.6.343-.813.229-.213.537-.32.922-.32.38 0 .685.107.914.32.235.214.352.485.352.813 0 .328-.117.599-.352.812-.229.214-.534.32-.914.32-.385 0-.693-.106-.922-.32a1.062 1.062 0 0 1-.343-.812ZM145.584 63v12h-2.257V63h2.257Zm4.385 3.547V75h-2.258v-8.453h2.258Zm-2.399-2.203c0-.328.115-.6.344-.813.229-.213.537-.32.922-.32.38 0 .685.107.914.32.234.214.352.485.352.813 0 .328-.118.599-.352.812-.229.214-.534.32-.914.32-.385 0-.693-.106-.922-.32a1.063 1.063 0 0 1-.344-.812Zm8.549 2.203v1.594h-4.922v-1.594h4.922Zm-3.703-2.086h2.25v7.992c0 .245.031.432.093.563.068.13.167.221.297.273.13.047.295.07.492.07.141 0 .266-.005.375-.015.115-.016.211-.031.29-.047l.007 1.656a4.21 4.21 0 0 1-.625.149 4.64 4.64 0 0 1-.742.054c-.495 0-.927-.08-1.297-.242a1.783 1.783 0 0 1-.843-.797c-.198-.364-.297-.844-.297-1.437v-8.22Zm7.642 9.586 2.242-7.5h2.414l-3.398 9.726a5.28 5.28 0 0 1-.297.688c-.12.245-.284.477-.492.695a2.307 2.307 0 0 1-.774.547c-.307.14-.685.211-1.133.211a2.86 2.86 0 0 1-.523-.039 8.92 8.92 0 0 1-.484-.11v-1.648h.179c.063.005.123.008.18.008.297 0 .539-.034.726-.102.188-.067.339-.171.454-.312.114-.135.205-.313.273-.531l.633-1.633Zm-.938-7.5 1.836 6.125.321 2.383-1.532.164-3.039-8.672h2.414Z"/></svg>
